X:1
T:Title
%%score { ( 1 3 ) | ( 2 4 ) }
L:1/8
M:3/4
K:Ab
V:1 treble nm="Grand Piano"
V:3 treble 
V:2 bass 
V:4 bass 
V:1
 z2 z2[Q:1/4=110] [A,CE]2 | C2- [CA]2 [DB]2 | [Cc]4 .[A,EA]2 | [A,DF]3 [B,EG] [A,EA][A,DF] | %4
 [A,CE]4 [G,E]2 | [G,E]2 F2 G2 | A4 GA | B3 c d[Fc] | [GB]4 [G,DE]2 | C2- [Cc]2 [DB]2 | %10
 [A,CA]4 .[A,=EA]2 | [A,F]3 [B,EG] [A,EA][G,_CF] | [G,C=E]4 [G,D_E]2 | E2 z2 [B,DE]2 | %14
 [CEA]4 [A,CE]2[Q:1/4=108][Q:1/4=107][Q:1/4=105][Q:1/4=103][Q:1/4=101][Q:1/4=100][Q:1/4=98][Q:1/4=96][Q:1/4=95][Q:1/4=93][Q:1/4=91][Q:1/4=89][Q:1/4=88][Q:1/4=86][Q:1/4=84] | %15
 E2 z2 z2 |[M:2/4] [A,CE]4 |] %17
V:2
 z2 z2 A,,2 | z2 E,2 [A,,G,]2 | [A,,A,]4 z G | D,3 D, C,D, | A,,4 E,2 | z2 [A,=D]2 [E,B,_D]2 | %6
 [E,C]4 DC | [E,G,E]3 [A,E] [F,A,D][=D,A,] | [E,G,]4 E,2 | z2 E,2 F,G, | A,,4 z G | D,3 D, C,=D, | %12
 C,4 B,,2 | z2 F2 G,,2 | A,,4 A,,2 | z2 F2 A,,2 |[M:2/4] A,,4 |] %17
V:3
 x6 | [A,E]2 z2 z2 | x6 | x6 | x6 | x6 | x6 | x6 | x6 | [A,E]2 z2 z2 | x6 | x6 | x6 | [B,D]4 z2 | %14
 x6 | [B,D]4 [G,DE]2 |[M:2/4] x4 |] %17
V:4
 x6 | A,,4 z2 | z2 z2 C,2 | x6 | x6 | E,4 z2 | z2 z2 [E,E]2 | x6 | x6 | A,,4 A,,2 | z2 z2 C,2 | %11
 x6 | x6 | G,,4 z2 | x6 | A,,4 z2 |[M:2/4] x4 |] %17

